X:182
T:Jiggery Pokerwork
M:6/8
C:John Spiers
K:Em
E2 F GFE | B2 c A3 | A2 B G2 B | BAG FGF | 
E2 F GFE | B2 c A3 | A2 B G2 B | BAF E3 :|| 
B_B=B GEB | _B=BG EB_B | BGE cGE | dAF gdB | 
B_B=B GEB | _B=BG EB_B | A3 d3 | BAF E3 :|| 

